X:1
T:Beatus vir - Anerio
T:#
%%score [ 1 2 3 4 ]
L:1/8
Q:1/4=120
M:none
K:C
V:1 treble nm="Soprano" snm="S"
V:2 treble nm="Alto" snm="A"
V:3 treble-8 nm="Tenor" snm="T"
V:4 treble nm="Bass" snm="B"
V:1
 z28 ||[K:Eb][K:treble][Q:1/4=180][Q:1/4=180][Q:1/4=180][Q:1/4=180] z8 c6 c2 | c4 c4 c8 | c8 B8 | %4
w: |In man-|da- tis e-|ius vo-|
 =A8 (B8- | B8 c8- | c8) c16 ||[Q:1/4=120][Q:1/4=120][Q:1/4=120][Q:1/4=120] z24 | z30 || %9
w: let ni\-||* mis.|||
[M:3/1][Q:1/4=360][Q:1/4=360][Q:1/4=360][Q:1/4=360] =A12 A4 A8 | B16 c8 | F12 F4 F8 | z8 B8 B8 | %13
w: Glo- ri- a,|et di-|vi- ti- ae|in do-|
 A16 G8 | A16 z8 | c16 c8 | c12 c4 c8 | =B16 B8 | e8 d8 c8 | B16 A8 | (G4 A4 B4 c4 d8) | c16 c8 | %22
w: mo e-|ius:|et ju-|sti- ti- a|e- ius|ma- net in|sae- cu-|lum * * * *|sae- cu-|
 =A24 ||[Q:1/4=120][Q:1/4=120][Q:1/4=120][Q:1/4=120] z26 | z30 || %25
w: li.|||
[Q:1/4=180][Q:1/4=180][Q:1/4=180][Q:1/4=180] c4 c2 c2 d4 d4 | z2 B2 c2 d2 e4 f2 e2 | %27
w: Ju- cun- dus ho- mo,|qui mi- se- re- tur et|
 d3 d d4 z4 e4 |[M:4/2] e4 c4 B4 e2 e2 | _d4 c4 (f3 e d2) c2 | B3 B B4 c4 c4 | c2 c2 =B8 B4 | %32
w: com- mo- dat, dis-|po- net ser- mo- nes|su- os in * * ju-|di- ci- o: qui- a|in ae- ter- num|
 z4 _B4 c2 d2 e4 | d4 c4 z2 G2 A3 B | c4 c4 =A16 || %35
w: non com- mo- ve-|bi- tur, non com- mo-|ve- bi- tur.|
[Q:1/4=120][Q:1/4=120][Q:1/4=120][Q:1/4=120] z26 | z30 || %37
w: ||
[M:4/2][Q:1/4=180][Q:1/4=180][Q:1/4=180][Q:1/4=180] A8 B8 | B4 B4 =A8 | =A8 B8 | c8 c4 c4 | %41
w: Pa- ra-|tum cor e-|ius spe-|ra- re in|
 B6 B2 B8 | c4 c4 c8 | B4 A8 G4 | G8 G8 | G4 G2 A2 B3 B =A4 | B8 B8- | B4 B4 e4 c4 | c8 z8 | %49
w: Do- mi- no,|con- fir- ma-|tum est cor|e- ius:|non com- mo- ve- bi- tur|do- nec|* de- spi- ci-|at|
 z4 F8 =E4 | A4 F4 (G8 | B6 A2 G4 F2 E2 | F12 =E4) | F16 || %54
w: i- ni-|mi- cos su\-|||os.|
[Q:1/4=120][Q:1/4=120][Q:1/4=120][Q:1/4=120] z20 | z32 || %56
w: ||
[M:4/2][Q:1/4=180][Q:1/4=180][Q:1/4=180][Q:1/4=180] c8 A8 | A4 F4 _d8 | c16 || %59
w: Pec- ca-|tor vi- de-|bit.|
[M:3/1][Q:1/4=360] z16 z8 | G8 c8 =B8 | c8 c8 z8 | c12 c4 c8 | =A16 A8 ||[Q:1/4=180] =A8 A8 | %65
w: |et i- ra-|sce- tur,|den- ti- bus|su- is|tre- met|
[M:4/2] B2 B2 c8 B4 | G2 G2 G3 G =A2 B4 c2 | %67
w: et ta- be- scet:|de- si- de- ri- um pec- ca-|
[Q:1/4=177] F4[Q:1/4=174] F2[Q:1/4=172] f2[Q:1/4=170] e4[Q:1/4=166] d4 | %68
w: to- rum pe- ri- bit,|
[Q:1/4=162] c4[Q:1/4=158] B4[Q:1/4=156] A2[Q:1/4=154] A2[Q:1/4=151] G4 |[Q:1/4=150] =A16 |] %70
w: pe- ri- bit, pe- ri-|bit.|
V:2
 z28 ||[K:Eb][K:treble] z8 z4 F4- | F4 C4 (E6 F2 | G4) (F6 =E2 E4) | F4 (C4 D2 E2 F4 | %5
w: |In|* man- da\- *|* tis * e-|ius vo\- * * *|
 G6 F2 E4) F4- | F4 =E4 F16 || z24 | z30 ||[M:3/1] F12 F4 F8 | G16 =A8 | B12 B4 B8 | F8 D8 E8 | %13
w: * * * let|* ni- mis.|||Glo- ri- a|et di-|vi- ti- ae|in do- mo|
 E24 | E16 z8 | E16 A8 | G12 G4 F8 | G16 G8 | E8 F8 F8 | G16 C8 | E16 z8 | A16 G8 | F24 || z26 | %24
w: e-|ius:|et ju-|sti- ti- a|e- ius|ma- net in|sae- cu-|lum|sae- cu-|li.||
 z30 || z2 F2 G2 =A2 B4 B4 | F4 F2 F2 G4 F2 G2 | G3 G G4 G4 G4 |[M:4/2] E2 E2 A2 A2 G4 E4 | %29
w: |Ju- cun- dus ho- mo,|qui mi- se- re- tur et|com- mo- dat, dis- po-|net ser- mo- nes su- os|
 z2 B4 A4 F4 A2 | G8 z4 A2 A2 | A2 G2 G4 G4 G4 | G2 A2 (BAGF G2 D3 C C2- | C2) =B,2 C4 z4 C2 D2 | %34
w: in ju- di- ci-|o: qui- a|in ae- ter- num non|com- mo- ve\- * * * * * * *|* bi- tur, non com-|
 =E2 F4 E2 F16 || z26 | z30 ||[M:4/2] F8 F8 | G4 F4 F8 | F8 G8 | A8 A4 A4 | G6 G2 G8 | G4 G4 G8 | %43
w: mo- ve- bi- tur.|||Pa- ra-|tum cor e-|ius spe-|ra- re in|Do- mi- no,|con- fir- ma-|
 G4 F4 E8 | D8 D8 | z16 | D8 D8 | D4 G8 F4 | E8 z8 | z16 | z4 F8 E4 | G4 F4 B,4 (C4- | %52
w: tum est cor|e- ius:||non com-|mo- ve- bi-|tur||i- ni-|mi- cos su- os.|
 C4 B,2 A,B, C8- | C16) || z20 | z32 ||[M:4/2] z8 C8 | F8 F4 F4 | =E8 E8 ||[M:3/1] G8 E8 D8 | %60
w: ||||Pec-|ca- tor vi-|de- bit.|et i- ra-|
 C16 G,8 | z16 z8 | G12 G4 G8 | F16 F8 || ^F8 F8 |[M:4/2] z2 G4 F2 G4 G4 | =E2 E2 E3 E F2 G4 _E2 | %67
w: sce- tur,||den- ti- bus|su- is|tre- met|et ta- be- scet:|de- si- de- ri- um pec- ca-|
 D4 D4 C4 =B,4 | C2 A2 G4 F2 F2 =E4 | F16 |] %70
w: to- rum pe- ri-|bit, pe- ri- bit, pe- ri-|bit.|
V:3
[K:Eb]"^Psalm 112 (Vulgate 111)""^Beatus vir, qui timet""^Felice Anerio\n(c. 1560-1614)" A2 B2 c2 c2 c2 B2 c2 _d2 c2 c2 B2 B2 c4 || %1
w: Be- a\- * tus vir, qui ti\- * met Do- mi- num *|
w: |
w: |
 c12 F4 | (A6 B2 c8- | c4) A4 B8 | c4 (f6 e2 d2 c2 | d4) G4 (A8 | G8) F16 || %7
w: In man-|da\- * *|* tis e-|ius vo\- * * *|* let ni\-|* mis.|
w: ||||||
w: ||||||
 A2 B2 c2 c2 B2 c2 _d2 c2 B2 B2 c4 | c16 B2 A2 B2 c2 B2 A4 ||[M:3/1][K:treble-8] c12 c4 c8 | %10
w: Po- tens in ter- ra e- rit se- men e- ius:|generatio~recto- rum be- ne- di- ce- tur.|Glo- ri- a|
w: |||
w: |||
 e16 e8 | d16 d8 | d8 f8 B8 | c8 B16 | A16 z8 | c16 f8 | e12 e4 c8 | d16 d8 | z16 z8 | d8 e8 f8 | %20
w: et di-|vi- ti-|ae in do-|mo e-|ius:|et ju-|sti- ti- a|e- ius||ma- net in|
w: ||||||||||
w: ||||||||||
 g8 g8 f8 | f16 =e8 | c24 || A2 B2 c2 c2 B2 c2 _d2 c2 c2 B2 B2 c4 | c16 B2 A2 B2 c2 B2 A4 || %25
w: sae- cu- lum|sae- cu-|li.|Ex- or- tum est in te- ne- bris lu- men re- ctis:|misericors,~et~mi- se- ra- tor, et ju- stus.|
w: |||||
w: |||||
 f4 =e2 f2 B4 B4 | d4 c2 B2 B4 B2 G2 | =B3 B B4 c8 |[M:4/2][K:treble-8] c4 A2 A2 e2 d2 c4 | %29
w: Ju- cun- dus ho- mo,|qui mi- se- re- tur et|com- mo- dat, dis-|po- net ser- mo- nes su-|
w: ||||
w: ||||
 B4 (f3 e _d3 c B2) A2 | E3 E E4 e4 e2 e2- | e2 e2 d4 d4 z2 d2 | e2 f2 (gfed c2) G2 g4 | %33
w: os in * * * * ju-|di- ci- o: qui- a in|* ae- ter- num non|com- mo- ve\- * * * * bi- tur,|
w: ||||
w: ||||
 z2 G4 A2 B2 (c3 B A2 | G4) G4 F16 || A2 B2 c2 c2 B2 c2 _d2 c2 c2 B2 B2 c4 | %36
w: non com- mo- ve\- * *|* bi- tur.|In me- mo- ri- a ae- ter- na e- rit ju- stus:|
w: |||
w: |||
 c16 B2 A2 B2 c2 B2 A4 ||[M:4/2][K:treble-8] c8 d8 | e4 d4 c8 | c8 e8 | e4 f8 e4 | e6 e2 e8 | %42
w: ab~auditione ma- la non ti- me- bit.|Pa- ra-|tum cor e-|ius spe-|ra- re in|Do- mi- no,|
w: ||||||
w: ||||||
 e4 e4 e8 | e4 c8 c4 | =B8 B8 | z2 c2 d2 f2 =e3 e f4 | f8 f4 F4 | B12 A4 | G4 c4 B4 e4 | %49
w: con- fir- ma-|tum est cor|e- ius:|non com- mo- ve- bi- tur|do- nec de-|spi- ci-|at i- ni- mi-|
w: |||||||
w: |||||||
 c4 (d8 c2 B2 | c8) c8 | z4 F4 E4 A4- | A4 F4 G8 | F16 || A2 B2 c2 B2 c2 _d2 c2 B2 c4 | %55
w: cos su\- * *|* os,|i- ni- mi\-|* cos su-|os,||
w: |||||Di- sper- sit, de- dit pau- per- i- bus:|
w: ||||||
 c16 B2 A2 B2 c2 B2 A2 A4 ||[M:4/2][K:treble-8] z8 F8 | A8 A4 B4 | G8 G8 ||[M:3/1] z16 z8 | %60
w: justitia~eius~manet~in~saeculum~ * * * * * * *|Pec-|ca- tor vi-|de- bit.||
w: |||||
w: saeculi,~cornu~eius~exal- ta- bi- tur in glo- ri- a.|||||
 g8 e8 d8 | c16 c8 | e12 e4 e8 | c16 c8 || d8 d4 z2 d2 |[M:4/2][K:treble-8] B2 (e4 dc e4) d4 | %66
w: et i- ra-|sce- tur,|den- ti- bus|su- is|tre- met et|ta- be\- * * * scet:|
w: ||||||
w: ||||||
 c2 c2 c3 c c2 G4 =A2 | B4 B4 z4 z2 G2 | (ABcd e4) c8- | c16 |] %70
w: de- si- de- ri- um pec- ca-|to- rum pe-|ri\- * * * * bit.||
w: ||||
w: ||||
V:4
 z28 ||[K:Eb][K:bass] z16 | F,8 C,8 | E,4 F,4 G,8 | F,8 (B,6 A,2 | G,2 F,2 E,2 D,2 C,4) A,,4 | %6
w: ||In man-|da- tis e-|ius vo\- *|* * * * * let|
 C,8 F,16 || z24 | z30 ||[M:3/1] F,12 F,4 F,8 | E,16 C,8 | B,,12 B,,4 B,,8 | B,16 G,8 | A,8 E,16 | %14
w: ni- mis.|||Glo- ri- a|et di-|vi- ti- ae|in do-|mo e-|
 A,,16 z8 | A,16 F,8 | C12 C4 A,8 | G,16 G,8 | C8 B,8 A,8 | G,16 F,8 | (E,4 F,4 G,4 A,4 B,8) | %21
w: ius:|et ju-|sti- ti- a|e- ius|ma- net in|sae- cu-|lum * * * *|
 (F,4 G,4 A,4 B,4 C6) C2 | F,24 || z26 | z30 || z16 | B,4 =A,2 B,2 E,4 D,2 E,2 | G,3 G, G,4 z8 | %28
w: sae\- * * * * cu-|li.||||Qui mi- se- re- tur et|com- mo- dat,|
[M:4/2] z16 | z16 | z8 A,6 A,2 | A,2 C2 G,8 G,4 | z4 G,4 A,2 B,2 C2 C,2 | %33
w: ||qui- a|in ae- ter- num|non com- mo- ve- bi-|
 G,4 C,4 D,2 E,2 F,2 F,,2 | (C,8 F,16) || z26 | z30 ||[M:4/2] F,8 B,8 | G,4 B,4 F,8 | F,8 E,8 | %40
w: tur, non com- mo- ve- bi-|tur. *|||Pa- ra-|tum cor e-|ius spe-|
 A,8 F,4 A,4 | E,6 E,2 E,8 | C,4 C,4 C8 | G,4 A,8 C4 | G,8 G,8 | C4 B,2 A,2 G,3 G, F,4 | %46
w: ra- re in|Do- mi- no,|con- fir- ma-|tum est cor|e- ius:|non com- mo- ve- bi- tur|
 B,,8 B,,8 | B,,4 E,8 F,4 | C,8 G,4 E,4 | A,4 F,4 G,8 | F,8 C,8 | B,,8 E,4 C,4 | (_D,8 C,8) | %53
w: do- nec|de- spi- ci-|at i- ni-|mi- cos su-|os, i-|ni- mi- cos|su\- *|
 F,16 || z20 | z32 ||[M:4/2] z8 z4 F,4 | _D,8 D,4 B,,4 | C,8 C,8 ||[M:3/1] G,8 C8 =B,8 | %60
w: os,|||Pec-|ca- tor vi-|de- bit.|et i- ra-|
 C8 C,8 z8 | z16 z8 | C12 C4 C8 | F,16 F,8 || D,8 D,8 |[M:4/2] G,2 E,2 A,4 G,8 | %66
w: sce- tur,||den- ti- bus|su- is|tre- met|et ta- be- scet:|
 C,2 C,2 C,3 C, F,2 E,4 C,2 | B,,4 B,,2 B,,2 (C,D,E,F, G,2) G,,2 | z4 z2 E,2 (F,G,A,B, C4) | %69
w: de- si- de- ri- um pec- ca-|to- rum pe- ri\- * * * * bit,|pe- ri\- * * * *|
 F,16 |] %70
w: bit.|

